X: 1
T:no name
R:reel
Z:id:hn-reel-573
M:C|
K:E
e2ge fecd|ecBG F2GF|ECB,C EFGB|efge fecd|
e2ge fecd|ecBG F2GF|ECB,C EFGB|1 cGBG E4:|2 cGBG E2GF||
|:ECB,C EFGB|c3c BGFG|EGBG cGBG|c2BG F2GF|
ECB,C EFGB|efge fecd|ecBG F2GF|1 ECB,C E2GF:|2 ECB,C E4||
